styles/4/Numix/64/places/blue-folder-projects.svg

<?xml version="1.0" encoding="UTF-8" standalone="no"?>
<!-- Created with Inkscape (http://www.inkscape.org/) -->

<svg
   xmlns:dc="http://purl.org/dc/elements/1.1/"
   xmlns:cc="http://creativecommons.org/ns#"
   xmlns:rdf="http://www.w3.org/1999/02/22-rdf-syntax-ns#"
   xmlns:svg="http://www.w3.org/2000/svg"
   xmlns="http://www.w3.org/2000/svg"
   xmlns:sodipodi="http://sodipodi.sourceforge.net/DTD/sodipodi-0.dtd"
   xmlns:inkscape="http://www.inkscape.org/namespaces/inkscape"
   width="64"
   height="64"
   id="svg2"
   version="1.1"
   inkscape:version="0.91 r"
   sodipodi:docname="blue-folder-projects.svg"
   inkscape:export-filename="/media/Data/Main/Visuals/Icons/Numix/Desktop/repos/numix-wiki/Gjorgi/Numix-folders/48/New/folder-144.png"
   inkscape:export-xdpi="270"
   inkscape:export-ydpi="270">
  <defs
     id="defs4" />
  <sodipodi:namedview
     id="base"
     pagecolor="#ffffff"
     bordercolor="#666666"
     borderopacity="1.0"
     inkscape:pageopacity="0.0"
     inkscape:pageshadow="2"
     inkscape:zoom="10.551073"
     inkscape:cx="26.529373"
     inkscape:cy="23.295189"
     inkscape:document-units="px"
     inkscape:current-layer="layer1"
     showgrid="false"
     inkscape:window-width="1280"
     inkscape:window-height="998"
     inkscape:window-x="0"
     inkscape:window-y="0"
     inkscape:window-maximized="1"
     showguides="true"
     inkscape:guide-bbox="true">
    <inkscape:grid
       type="xygrid"
       id="grid2985"
       empspacing="5"
       visible="true"
       enabled="true"
       snapvisiblegridlinesonly="true" />
  </sodipodi:namedview>
  <metadata
     id="metadata7">
    <rdf:RDF>
      <cc:Work
         rdf:about="">
        <dc:format>image/svg+xml</dc:format>
        <dc:type
           rdf:resource="http://purl.org/dc/dcmitype/StillImage" />
        <dc:title />
      </cc:Work>
    </rdf:RDF>
  </metadata>
  <g
     inkscape:label="Layer 1"
     inkscape:groupmode="layer"
     id="layer1"
     transform="translate(0,-988.3622)">
    <path
       style="fill:#1976d2;fill-opacity:1;stroke:none"
       d="m 8.0000002,998.36231 46.9999998,0 c 2,0 3,0.9997 3,2.99919 l 0,6.9982 c 0,1.1077 -0.9474,0.9997 -2,0.9997 l -47.9999998,0 c -1.0526,0 -2,-0.8918 -2,-1.9995 l 0,-8.99759 z"
       id="path3811"
       inkscape:connector-curvature="0"
       sodipodi:nodetypes="csssssscc" />
    <path
       style="opacity:0.02999998;fill:#000000;fill-opacity:1;stroke:none"
       d="m 6.0000002,1004.3624 0,4.9999 51.9999998,0 0,-4.9999 z"
       id="path3807"
       inkscape:connector-curvature="0" />
    <path
       style="fill:#1976d2;fill-opacity:1;stroke:none"
       d="m 6.0000002,1002.3623 0,-4.99999 c 0,-1.99999 0.909091,-2.99999 1.8181819,-2.99999 l 10.3636359,0 c 0.909091,0 1.818182,1 1.818182,2.99999 l 0,4.99999 z"
       id="rect3760"
       inkscape:connector-curvature="0"
       sodipodi:nodetypes="csssscc" />
    <rect
       style="fill:#42a5f5;fill-opacity:1;stroke:none"
       id="rect2990"
       width="60"
       height="40"
       x="2"
       y="1006.3622"
       rx="4"
       ry="3.3333333" />
    <path
       style="opacity:0.1;fill:#ffffff;fill-opacity:1;stroke:none"
       d="m 6.0000002,1006.3623 c -2.216,0 -4,1.4971 -4,3.3438 l 0,2 c 0,-1.8467 1.784,-3.3438 4,-3.3438 l 51.9999998,0 c 2.216,0 4,1.4971 4,3.3438 l 0,-2 c 0,-1.8467 -1.784,-3.3438 -4,-3.3438 l -51.9999998,0 z"
       id="rect3004"
       inkscape:connector-curvature="0" />
    <path
       style="opacity:0.05;fill:#000000;fill-opacity:1;stroke:none"
       d="m 20,998.36231 0,1.99999 2,0 33,0 c 2,0 3,1.0005 3,3 l 0,-2 c 0,-1.99949 -1,-2.99999 -3,-2.99999 l -33,0 z"
       id="path3781"
       inkscape:connector-curvature="0"
       sodipodi:nodetypes="cccscsscc" />
    <path
       style="opacity:0.05;fill:#000000;fill-opacity:1;stroke:none"
       d="m 7.8125002,994.3623 c -0.9090909,0 -1.8125,1 -1.8125,3.00001 l 0,2 c 0,-2 0.9034091,-3.00001 1.8125,-3.00001 l 10.3749998,0 c 0.909091,0 1.8125,1.00001 1.8125,3.00001 l 0,-2 c 0,-2.00001 -0.903409,-3.00001 -1.8125,-3.00001 l -10.3749998,0 z"
       id="path3801"
       inkscape:connector-curvature="0" />
    <path
       style="opacity:1.0;fill:#2a74b9;fill-opacity:1;fill-rule:nonzero;stroke:none"
       d="M 22.3125 27.125 C 21.54164 27.149 20.796034 27.21415 20.0625 27.46875 C 19.83187 29.03355 20.205412 30.65665 20.625 32.15625 C 21.692318 35.59645 23.68774 38.8727 26.59375 41.0625 C 26.70027 41.1645 26.851576 41.1924 26.8125 41.375 C 26.7971 42.1372 26.811 42.9231 26.8125 43.6875 C 26.84376 45.0235 27.633968 46.3077 28.8125 46.9375 C 30.211231 47.6743 31.622632 48.3359 33.03125 49.0625 C 33.679692 49.4063 34.57772 49.03835 34.78125 48.34375 C 34.90509 47.88675 34.80594 47.4035 34.8125 46.9375 C 34.8077 45.9559 34.71198 44.9692 34.75 44 C 36.031999 43.842 37.305886 43.21585 38.0625 42.15625 C 38.736842 41.25245 38.988872 40.0619 38.90625 38.9375 C 40.277742 38.6929 41.688008 38.4986 43.0625 38.25 C 43.876006 38.086 44.228296 37.0376 43.71875 36.375 C 42.719022 35.1072 41.703871 33.85275 40.6875 32.59375 C 39.866948 31.61295 38.577998 31.0832 37.3125 31.25 C 36.454298 31.388 35.596195 31.55875 34.75 31.71875 C 32.017334 29.11355 28.33263 27.6702 24.625 27.25 C 23.863596 27.18 23.08336 27.113 22.3125 27.125 z M 26.9375 29.96875 C 27.833214 29.88875 28.723471 30.1292 29.46875 30.75 C 30.959302 31.9924 31.20988 34.22695 29.96875 35.71875 C 28.727613 37.21035 26.521806 37.4299 25.03125 36.1875 C 23.540698 34.9457 23.290117 32.7422 24.53125 31.25 C 25.151816 30.5044 26.041782 30.05075 26.9375 29.96875 z M 27.34375 31.53125 C 26.239181 31.53125 25.34375 32.426681 25.34375 33.53125 C 25.34375 34.635819 26.239181 35.53125 27.34375 35.53125 C 28.448319 35.53125 29.34375 34.635819 29.34375 33.53125 C 29.34375 32.426681 28.448319 31.53125 27.34375 31.53125 z M 41.03125 40.71875 C 40.813799 40.787459 40.626976 40.978 40.59375 41.21875 C 40.20289 42.99655 38.954742 44.5414 37.28125 45.25 C 36.8455 45.388 36.735828 45.99545 37.09375 46.28125 C 37.828226 46.89345 38.668778 47.5791 39.40625 48.1875 C 39.765094 48.4929 40.243976 48.17455 40.25 47.71875 C 40.2384 47.34555 40.18985 46.9305 40.15625 46.5625 C 41.070672 46.7585 41.970174 47.01835 42.875 47.21875 C 43.30139 47.30675 43.704772 46.81285 43.53125 46.40625 C 43.173544 45.54805 42.804804 44.7288 42.4375 43.875 C 42.807748 43.831 43.162956 43.77675 43.53125 43.71875 C 43.98711 43.62875 44.183932 42.9849 43.8125 42.6875 C 43.07382 42.0659 42.310776 41.46095 41.5625 40.84375 C 41.47496 40.77375 41.352234 40.72875 41.25 40.71875 C 41.17333 40.71175 41.103734 40.695847 41.03125 40.71875 z "
       transform="translate(0,988.3622)"
       id="path10643" />
  </g>
</svg>

<!-- Created with Inkscape (http://www.inkscape.org/) -->
<svg xmlns="http://www.w3.org/2000/svg" viewBox="0 0 64 64">
 <g transform="translate(0,-988.3622)">
  <path d="m 8 998.36 47 0 c 2 0 3 1 3 2.999 l 0 6.998 c 0 1.108 -0.947 1 -2 1 l -48 0 c -1.053 0 -2 -0.892 -2 -2 l 0 -8.998 z" style="fill:#1976d2;fill-opacity:1;stroke:none"/>
  <path d="m 6 1004.36 0 5 52 0 0 -5 z" style="fill:#000;opacity:0.03;fill-opacity:1;stroke:none"/>
  <path d="m 6 1002.36 0 -5 c 0 -2 0.909 -3 1.818 -3 l 10.364 0 c 0.909 0 1.818 1 1.818 3 l 0 5 z" style="fill:#1976d2;fill-opacity:1;stroke:none"/>
  <rect width="60" height="40" x="2" y="1006.36" rx="4" ry="3.333" style="fill:#42a5f5;fill-opacity:1;stroke:none"/>
  <path d="m 6 1006.36 c -2.216 0 -4 1.497 -4 3.344 l 0 2 c 0 -1.847 1.784 -3.344 4 -3.344 l 52 0 c 2.216 0 4 1.497 4 3.344 l 0 -2 c 0 -1.847 -1.784 -3.344 -4 -3.344 l -52 0 z" style="fill:#fff;opacity:0.1;fill-opacity:1;stroke:none"/>
  <path d="m 20 998.36 0 2 2 0 33 0 c 2 0 3 1 3 3 l 0 -2 c 0 -1.999 -1 -3 -3 -3 l -33 0 z" style="fill:#000;opacity:0.05;fill-opacity:1;stroke:none"/>
  <path d="m 7.813 994.36 c -0.909 0 -1.813 1 -1.813 3 l 0 2 c 0 -2 0.903 -3 1.813 -3 l 10.375 0 c 0.909 0 1.813 1 1.813 3 l 0 -2 c 0 -2 -0.903 -3 -1.813 -3 l -10.375 0 z" style="fill:#000;opacity:0.05;fill-opacity:1;stroke:none"/>
  <path d="m 22.313 27.13 c -0.771 0.024 -1.516 0.089 -2.25 0.344 c -0.231 1.565 0.143 3.188 0.563 4.688 c 1.067 3.44 3.063 6.716 5.969 8.906 c 0.107 0.102 0.258 0.13 0.219 0.313 c -0.015 0.762 -0.002 1.548 0 2.313 c 0.031 1.336 0.821 2.62 2 3.25 c 1.399 0.737 2.81 1.398 4.219 2.125 c 0.648 0.344 1.546 -0.024 1.75 -0.719 c 0.124 -0.457 0.025 -0.94 0.031 -1.406 c -0.005 -0.982 -0.101 -1.968 -0.063 -2.938 c 1.282 -0.158 2.556 -0.784 3.313 -1.844 c 0.674 -0.904 0.926 -2.094 0.844 -3.219 c 1.371 -0.245 2.782 -0.439 4.156 -0.688 c 0.814 -0.164 1.166 -1.212 0.656 -1.875 c -1 -1.268 -2.01 -2.522 -3.03 -3.781 c -0.821 -0.981 -2.11 -1.511 -3.375 -1.344 c -0.858 0.138 -1.716 0.309 -2.563 0.469 c -2.733 -2.605 -6.417 -4.049 -10.125 -4.469 c -0.761 -0.07 -1.542 -0.137 -2.313 -0.125 z m 4.625 2.844 c 0.896 -0.08 1.786 0.16 2.531 0.781 c 1.491 1.242 1.741 3.477 0.5 4.969 c -1.241 1.492 -3.447 1.711 -4.938 0.469 c -1.491 -1.242 -1.741 -3.445 -0.5 -4.938 c 0.621 -0.746 1.511 -1.199 2.406 -1.281 z m 0.406 1.563 c -1.105 0 -2 0.895 -2 2 c 0 1.105 0.895 2 2 2 c 1.105 0 2 -0.895 2 -2 c 0 -1.105 -0.895 -2 -2 -2 z m 13.688 9.188 c -0.217 0.069 -0.404 0.259 -0.438 0.5 c -0.391 1.778 -1.639 3.323 -3.313 4.03 c -0.436 0.138 -0.545 0.745 -0.188 1.031 c 0.734 0.612 1.575 1.298 2.313 1.906 c 0.359 0.305 0.838 -0.013 0.844 -0.469 c -0.012 -0.373 -0.06 -0.788 -0.094 -1.156 c 0.914 0.196 1.814 0.456 2.719 0.656 c 0.426 0.088 0.83 -0.406 0.656 -0.813 c -0.358 -0.858 -0.726 -1.677 -1.094 -2.531 c 0.37 -0.044 0.725 -0.098 1.094 -0.156 c 0.456 -0.09 0.653 -0.734 0.281 -1.031 c -0.739 -0.622 -1.502 -1.227 -2.25 -1.844 c -0.088 -0.07 -0.21 -0.115 -0.313 -0.125 c -0.077 -0.007 -0.146 -0.023 -0.219 0 z" transform="translate(0,988.3622)" style="fill:#2a74b9;opacity:1;fill-opacity:1;stroke:none;fill-rule:nonzero"/>
 </g>
</svg>
